src/assets/icons/fullscreen-exit.svg

<?xml version="1.0" standalone="no"?><!DOCTYPE svg PUBLIC "-//W3C//DTD SVG 1.1//EN" "http://www.w3.org/Graphics/SVG/1.1/DTD/svg11.dtd"><svg t="1601190943494" class="icon" viewBox="0 0 1024 1024" version="1.1" xmlns="http://www.w3.org/2000/svg" p-id="4326" xmlns:xlink="http://www.w3.org/1999/xlink" width="200" height="200"><defs><style type="text/css"></style></defs><path d="M768 298.666667h170.666667v85.333333h-256V128h85.333333v170.666667zM341.333333 384H85.333333V298.666667h170.666667V128h85.333333v256z m426.666667 341.333333v170.666667h-85.333333v-256h256v85.333333h-170.666667zM341.333333 640v256H256v-170.666667H85.333333v-85.333333h256z" p-id="4327"></path></svg>

<svg class="icon" viewBox="0 0 1024 1024" xmlns="http://www.w3.org/2000/svg" width="200" height="200"><path d="M768 298.667h170.667V384h-256V128H768v170.667zM341.333 384h-256v-85.333H256V128h85.333v256zM768 725.333V896h-85.333V640h256v85.333H768zM341.333 640v256H256V725.333H85.333V640h256z"/></svg>
